X: 16437
T: Hag At The Churn, The
R: jig
M: 6/8
K: Dmixolydian
Ac/A/G ADD|Ac/A/G Adc|Ac/A/G ADD|EFG EFG|
Ac/A/D Ac/A/D|Ac/A/D Adc|Ac/A/G ADD|EFG EFG||
AdB c3|Add efg|AdB c2G|E3 GED|
AdB c3|Add efg|fge dcA|GEF GED||

